!!!COM:	la Rue, Pierre de
!!!CDT:	~1452///-1518/11/20
!!!OPR:	Missa Sine nomine I
!!!ONM:	3
!!!OTL:	Credo
!!!AGN:	Mass; Credo
!!!SCT:	Rue1028c
!!!SCA:	Rue1028c
!!!voices:	4
**kern	**kern	**kern	**kern
*staff4	*staff3	*staff2	*staff1
*Ivox	*Ivox	*Ivox	*Ivox
*I"Bassus	*I"Tenor	*I"Contra	*I"Discantus
*I'B	*I'T	*I'C	*I'D
*>[A,B]	*>[A,B]	*>[A,B]	*>[A,B]
*>A	*>A	*>A	*>A
*clefF4	*clefGv2	*clefGv2	*clefG2
*k[b-]	*k[b-]	*k[b-]	*k[b-]
*M2/1	*M2/1	*M2/1	*M2/1
*met(C|)	*met(C|)	*met(C|)	*met(C|)
!!section: Patrem omnipotentem
!!!OMD: Patrem omnipotentem
=1-	=1-	=1-	=1-
0r	0r	2G/	0r
.	.	2G/	.
.	.	2B-\	.
.	.	2B-\	.
=2	=2	=2	=2
0r	0r	2c\	2g/
.	.	2c\	2g/
.	.	1d	2b-\
.	.	.	2b-\
=3	=3	=3	=3
0r	0r	2r	2cc\
.	.	2e-i\	2cc\
.	.	2d\	2dd\
.	.	[2B-\	2dd\
=4	=4	=4	=4
0r	0r	2B-\]	2.b-\
.	.	1d	.
.	.	.	4cc\
.	.	.	2dd\
.	.	[2g\	[2ee-i\
=5	=5	=5	=5
1r	0r	4g\]	4ee-\]
.	.	4f\	4dd\
.	.	4e-i\	4dd\
.	.	4e-i\	4cc\
2r	.	[1d	[1dd
2GG/	.	.	.
=6	=6	=6	=6
2GG/	1r	1d]	1dd]
2GG/	.	.	.
2BB-/	2r	1r	1r
2BB-/	2G/	.	.
=7	=7	=7	=7
2C/	2G/	0r	0r
2C/	2G/	.	.
1D	2B-\	.	.
.	2B-\	.	.
=8	=8	=8	=8
2r	2c\	0r	0r
2E-i\	2c\	.	.
[1D	2d\	.	.
.	4B-\	.	.
.	4c\	.	.
=9	=9	=9	=9
2D\]	2d\	0r	0r
2.G\	2.e-i\	.	.
4F\	4d\	.	.
4E-i\	4d\	.	.
4E-i\	4c\	.	.
=10	=10	=10	=10
0D	0d	2.f\	2.dd\
.	.	4f\	4dd\
.	.	2f\	2dd\
.	.	2f\	2dd\
=11	=11	=11	=11
0r	0r	2e\	2cc\
.	.	2d\	2b-\
.	.	2c\	2a/
.	.	2B-\	2g/
=12	=12	=12	=12
2r	2r	1A	2f/
2D\	2d\	.	2f/
2E-i\	2c\	1G	2g/
2E-i\	2c\	.	2g/
=13	=13	=13	=13
2D\	2d\	0A	0f
2D\	2d\	.	.
2D\	2d\	.	.
2D\	2d\	.	.
=14	=14	=14	=14
2C/	2.e-i\	0r	0r
2.E-i\	.	.	.
.	4d\	.	.
.	4c\	.	.
4D\	4B-\	.	.
4C/	4A/	.	.
4BB-/	4G/	.	.
=15	=15	=15	=15
4C/	2A/	0r	0r
4BB-/	.	.	.
4AA/	1G	.	.
4GG/	.	.	.
1AA	.	.	.
.	2F#i/	.	.
=16	=16	=16	=16
1GG	0G	2r	0r
.	.	2g\	.
2r	.	2g\	.
2G\	.	2g\	.
=17	=17	=17	=17
2G\	1r	2g\	2r
2G\	.	2g\	2dd\
2G\	2r	2.g\	2dd\
2G\	2d\	.	2dd\
.	.	8f\L	.
.	.	8e\J	.
=18	=18	=18	=18
2.G\	2d\	1d	2dd\
.	2d\	.	2dd\
8F\L	.	.	.
8E\J	.	.	.
[1D	2d\	1r	2.dd\
.	2d\	.	.
.	.	.	8cc\L
.	.	.	8b-\J
=19	=19	=19	=19
0D]	2.d\	1r	0a
.	8c\L	.	.
.	8B-\J	.	.
.	1A	2r	.
.	.	2d\	.
=20	=20	=20	=20
0r	0r	2f\	2r
.	.	2f\	2a/
.	.	[1e	2.cc\
.	.	.	4dd\
=21	=21	=21	=21
0r	0r	2e\]	2cc\
.	.	2d\	2b-\
.	.	2.c\	2a/
.	.	.	2g/
.	.	4B-\	.
=22	=22	=22	=22
2r	2r	2A/	2f/
2BB-/	2G/	2r	2r
4C/	4A/	1r	1r
4BB-/	2G/	.	.
2AA/	.	.	.
.	4F#i/	.	.
=23	=23	=23	=23
1GG	1G	2r	2r
.	.	2B-\	2g/
1r	1r	4c\	4a/
.	.	4B-\	4g/
.	.	4A/	4g/
.	.	4A/	4f#i/
=24	=24	=24	=24
2r	2r	2G/	2g/
2G\	2B-\	2d\	2g/
2F\	2c\	2f\	2a/
2D\	2d\	2f\	2b-\
=25	=25	=25	=25
1C	2.e-i\	2.g\	2cc\
.	.	.	4cc\
.	4d\	4f\	4b-\
2C/	4c\	4e\	4a/
.	4B-\	4d\	4g/
[2F\	[2c\	[2f\	[2a/
=26	=26	=26	=26
4F\]	4c\]	4f\]	2a/]
4G\	4B-\	4e\	.
2E\	4A/	4d\	1g
.	4G/	4c\	.
1D	1A	1d	.
.	.	.	2f#i/
=27	=27	=27	=27
1GG	0G	0d	0g
2GG/	.	.	.
2GG/	.	.	.
=28	=28	=28	=28
2BB-/	1r	0r	0r
2BB-/	.	.	.
1C	2G/	.	.
.	2G/	.	.
=29	=29	=29	=29
1D	2B-\	0r	1r
.	2B-\	.	.
1r	1c	.	2g/
.	.	.	2g/
=30	=30	=30	=30
0r	1d	2r	2b-\
.	.	2d\	2b-\
.	1r	1e-i	1cc
=31	=31	=31	=31
0r	0r	2d\	1dd
.	.	2G/	.
.	.	2B-\	2r
.	.	2B-\	2g/
=32	=32	=32	=32
0r	0r	2d\	2b-\
.	.	2d\	2b-\
.	.	2e-i\	2cc\
.	.	2e-i\	2cc\
=33	=33	=33	=33
1r	2r	1d	2dd\
.	2d\	.	4b-\
.	.	.	4cc\
2D\	4B-\	1r	1dd
.	4c\	.	.
4BB-/	[2d\	.	.
4C/	.	.	.
=34	=34	=34	=34
2D\	2d\]	0r	0r
2.G\	2.e-i\	.	.
4F\	4d\	.	.
4E-i\	4d\	.	.
4E-i\	4c\	.	.
=35	=35	=35	=35
0D	0d	1f	1dd
.	.	2f\	2dd\
.	.	[2f\	[2dd\
=36	=36	=36	=36
0r	0r	2f\]	2dd\]
.	.	2f\	2dd\
.	.	2g\	2.dd\
.	.	2g\	.
.	.	.	8cc\L
.	.	.	8b-\J
=37	=37	=37	=37
2r	1r	0f	0a
2D\	.	.	.
2F\	2r	.	.
2F\	2A/	.	.
=38	=38	=38	=38
2F\	2c\	2r	2r
2F\	2c\	2c\	2a/
2F\	2c\	2f\	2a/
2F\	2c\	2f\	2a/
=39	=39	=39	=39
0C	1c	2.e\	2.cc\
.	.	4e\	4b-\
.	1c	2e\	2a/
.	.	2e\	2g/
=40	=40	=40	=40
2r	2A/	2d\	2f/
2D\	2A/	2d\	2f/
2E\	2.c\	2c\	2g/
2C/	.	2e\	2a/
.	4B-\	.	.
=41	=41	=41	=41
2D\	2A/	2d\	4a/
.	.	.	2g/
2D\	2A/	2d\	.
.	.	.	4f#i/
1GG	[1G	1d	[1g
=42	=42	=42	=42
1r	1G]	2r	0g_
.	.	2B-\	.
2r	1r	2.B-\	.
2GG/	.	.	.
.	.	4c\	.
=43	=43	=43	=43
2.GG/	1r	2d\	1g]
.	.	2B-\	.
4AA/	.	.	.
2BB-/	2r	1d	1r
2GG/	2G/	.	.
=44	=44	=44	=44
1C	2.G/	1e-i	1r
.	4A/	.	.
1r	2B-\	1r	2r
.	2G/	.	2g/
=45	=45	=45	=45
1r	1c	2r	2.g/
.	.	2e-i\	.
.	.	.	4a/
2r	1r	2.e-i\	2b-\
2C/	.	.	2g/
.	.	4f\	.
=46	=46	=46	=46
2.C/	2r	2g\	1cc
.	2G/	2c\	.
4D\	.	.	.
2E-i\	2.G/	[1g	1r
2C/	.	.	.
.	4A/	.	.
=47	=47	=47	=47
[0G	2B-\	0g_	2r
.	2G/	.	2g/
.	[1d	.	2.g/
.	.	.	4a/
=48	=48	=48	=48
1G]	1d]	1g]	2b-\
.	.	.	2g/
1r	[1c	2r	[1cc
.	.	[2e\	.
=49	=49	=49	=49
2r	1c]	4e\]	1cc]
.	.	4f\	.
2.C/	.	2g\	.
.	2r	2e\	1r
4D\	.	.	.
2E\	[2G/	[2g\	.
=50	=50	=50	=50
2C/	4G/]	4g\]	2r
.	4A/	4f\	.
2.G\	2B-\	4e\	2.g/
.	.	4d\	.
.	1G	1g	.
4F\	.	.	4a/
4E\	.	.	2b-\
4D\	.	.	.
=51	=51	=51	=51
0C	1c	0e	2g/
.	.	.	2cc\
.	2.c\	.	4cc\
.	.	.	4b-\
.	.	.	4a/
.	4B-\	.	4g/
=52	=52	=52	=52
1D	4A/	2r	1f
.	4G/	.	.
.	1F	1d	.
2r	.	.	2r
2D\	2B-\	2d\	2f/
=53	=53	=53	=53
2BB-/	2d\	2f\	2b-\
2F\	2c\	2f\	1a
1G	1B-	[1d	.
.	.	.	2g/
=54	=54	=54	=54
1D	1A	1d]	2g/
.	.	.	2f#i/
1GG	[1G	1d	1g
=55	=55	=55	=55
1r	1G]	2g\	1r
.	.	2g\	.
2G\	1r	2g\	1r
2G\	.	2g\	.
=56	=56	=56	=56
2G\	1r	2g\	2dd\
2G\	.	2g\	2dd\
2G\	2d\	2g\	2dd\
2G\	2d\	2g\	2dd\
=57	=57	=57	=57
2G\	2d\	1g	2dd\
2G\	2d\	.	2dd\
1G	2d\	1d	2dd\
.	2d\	.	2dd\
=58	=58	=58	=58
0D	2d\	2r	1dd
.	2d\	2d\	.
.	1d	1f	2a/
.	.	.	2a/
=59	=59	=59	=59
0r	1A	1e	2.cc\
.	.	.	4dd\
.	1r	2d\	2b-\
.	.	2c\	2a/
=60	=60	=60	=60
1r	1r	1B-	1g
2r	2r	2A/	2f/
2D\	2d\	2A/	2f/
=61	=61	=61	=61
2E-i\	2c\	2G/	2g/
2E-i\	2c\	2G/	2g/
1D	1d	2A/	2f/
.	.	2f\	[2a/
=62	=62	=62	=62
1C	2e-i\	2g\	4a/]
.	.	.	4b-\
.	2.c\	1e-	4cc\
.	.	.	4b-\
1E-i	.	.	4a/
.	4B-\	.	4g/
.	4A/	2c\	[2g/
.	4G/	.	.
=63	=63	=63	=63
1D	1A	1d	2g/]
.	.	.	2f#i/
1GGl	1Gl	1dl	1gl
!!LO:LB:i:g=z
=64||	=64||	=64||	=64||
*>B	*>B	*>B	*>B
*clefF4	*clefGv2	*clefGv2	*clefG2
*k[b-]	*k[b-]	*k[b-]	*k[b-]
*M2/1	*M2/1	*M2/1	*M2/1
*met(C|)	*met(C|)	*met(C|)	*met(C|)
!!section: Et resurrexit
!!!OMD: Et resurrexit
1r	0r	1g	0r
1G	.	2g\	.
.	.	2g\	.
=65	=65	=65	=65
2G\	1r	2.g\	1dd
2G\	.	.	.
.	.	8f\L	.
.	.	8e\J	.
2.G\	1d	1d	2dd\
.	.	.	2dd\
8F\L	.	.	.
8E\J	.	.	.
=66	=66	=66	=66
1D	2d\	2r	2.dd\
.	2d\	2d\	.
.	.	.	8cc\L
.	.	.	8b-\J
2r	2.d\	2f\	1a
2D\	.	2f\	.
.	8c\L	.	.
.	8B-\J	.	.
=67	=67	=67	=67
2F\	1A	2.f\	2r
2F\	.	.	2a/
.	.	8e\L	.
.	.	8d\J	.
2.F\	2r	2c\	2cc\
.	2A/	2c\	2cc\
8E\L	.	.	.
8D\J	.	.	.
=68	=68	=68	=68
2C/	2c\	2e-\	2.cc\
2C/	2c\	2e-i\	.
.	.	.	8b-/L
.	.	.	8a/J
2E-\	2.c\	2.e-i\	2g/
2E-i\	.	.	2g/
.	8B-/L	8d\L	.
.	8A/J	8c\J	.
=69	=69	=69	=69
2.E-i\	2G/	0B-	2b-\
.	2G/	.	2b-\
8D/L	.	.	.
8C/J	.	.	.
2.BB-/	2B-\	.	2.b-\
.	2B-\	.	.
4C/	.	.	8a/L
.	.	.	8g/J
=70	=70	=70	=70
0D	1B-	0r	2f/
.	.	.	1g
.	1A	.	.
.	.	.	2f#i/
=71	=71	=71	=71
1r	0G	0r	[0g
2GG/	.	.	.
2GG/	.	.	.
=72	=72	=72	=72
2BB-/	1r	0r	0g]
2BB-/	.	.	.
2C/	2G/	.	.
2C/	2G/	.	.
=73	=73	=73	=73
1D	2B-\	0r	0r
.	2B-\	.	.
1E-i	2c\	.	.
.	2c\	.	.
=74	=74	=74	=74
2r	2d\	0r	0r
1D	2B-\	.	.
.	4B-\	.	.
.	4c\	.	.
4BB-/	[2d\	.	.
4C/	.	.	.
=75	=75	=75	=75
2D\	2d\]	0r	0r
2.G\	2.e-i\	.	.
4F\	4d\	.	.
4E-i\	4d\	.	.
4E-i\	4c\	.	.
=76	=76	=76	=76
0D	0d	2r	2r
.	.	2f\	2dd\
.	.	2f\	2dd\
.	.	2f\	2dd\
=77	=77	=77	=77
0r	0r	2.e\	2.cc\
.	.	4d\	4b-\
.	.	2c\	2a/
.	.	2B-\	2g/
=78	=78	=78	=78
2r	2r	2A/	2f/
2D\	2d\	2A/	2f/
2E-i\	2c\	2G/	2g/
2E-i\	2c\	2G/	2g/
=79	=79	=79	=79
2D\	2d\	2A/	2f/
2D\	2d\	2A/	2f/
2E-i\	2c\	2G/	2g/
2E-\	2c\	2G/	2g/
=80	=80	=80	=80
2D\	2d\	1A	2f/
1F	2c\	.	2f/
.	1d	1f	2a/
2D\	.	.	2b-\
=81	=81	=81	=81
1C	2.e-i\	2.g\	2.cc\
.	4d\	4f\	4b-\
2C/	4c\	4e\	4a/
.	4B-\	4d\	4g/
[2F\	[2c\	[2f\	[2a/
=82	=82	=82	=82
4F\]	4c\]	4f\]	2a/]
4G\	4B-\	4e\	.
2E-i\	4A/	4d\	1g
.	4G/	4c\	.
1D	1A	1d	.
.	.	.	2f#i/
=83	=83	=83	=83
2r	1G	2g\	1g
2G\	.	2g\	.
2G\	2r	2g\	2dd\
2G\	2d\	2d\	2dd\
=84	=84	=84	=84
2D\	2d\	1f	2dd\
1F	2d\	.	2a/
.	2A/	1f	2.cc\
2F\	[2c\	.	.
.	.	.	4b-\
=85	=85	=85	=85
1G	2c\]	1d	4a/
.	.	.	4g/
.	2B-\	.	1g
1D	2A/	1d	.
.	2A/	.	2f#i/
=86	=86	=86	=86
0GG	0G	1B-	0g
.	.	2G/	.
.	.	2G/	.
=87	=87	=87	=87
0r	0r	2B-\	1r
.	.	2B-\	.
.	.	2c\	2g/
.	.	2c\	2g/
=88	=88	=88	=88
0r	0r	1d	2b-\
.	.	.	2b-\
.	.	1e-i	2cc\
.	.	.	2cc\
=89	=89	=89	=89
0r	0r	2r	2dd\
.	.	2d\	4b-\
.	.	.	4cc\
.	.	4B-\	2dd\
.	.	4c\	.
.	.	[2d\	4b-\
.	.	.	4cc\
=90	=90	=90	=90
0r	0r	2d\]	2dd\
.	.	2.g\	2.ee-i\
.	.	4f\	4dd\
.	.	4e-i\	4dd\
.	.	4e-i\	4cc\
=91	=91	=91	=91
2r	2r	2d\	2dd\
2G\	2d\	2g\	2dd\
2G\	2d\	2g\	2dd\
2G\	2d\	2g\	2dd\
=92	=92	=92	=92
2A\	2A/	2e\	2.cc\
2A\	2.c\	2e\	.
.	.	.	4b-\
2F\	.	4f\	4a/
.	4c\	4e\	4g/
[2G\	2B-\	4d\	[2b-\
.	.	4c\	.
=93	=93	=93	=93
4G\]	2d\	2B-\	4b-\]
4F\	.	.	4a/
4E\	1d	2A/	4g/
4D\	.	.	4f/
1E	.	1G	1g
.	2c\	.	.
=94	=94	=94	=94
2r	2d\	0A	0f
2D\	2d\	.	.
2D\	2d\	.	.
2D\	2d\	.	.
=95	=95	=95	=95
2.E-\	2.c\	0r	0r
4D\	4B-\	.	.
2C/	2A/	.	.
2BB-/	2G/	.	.
=96	=96	=96	=96
0AA	1F	2r	2r
.	.	2c\	2cc\
.	1E	2.c\	2.cc\
.	.	4c\	4b-\
=97	=97	=97	=97
1r	1r	2c\	2a/
.	.	2B-\	2g/
2D\	2d\	2A/	2f/
2D\	2d\	2f\	2f/
=98	=98	=98	=98
2G\	2B-\	2e\	2g/
2F\	2c\	2.f\	2.a/
2G\	2B-\	.	.
.	.	4e\	4g/
2D\	2A/	2d\	4g/
.	.	.	4f#i/
=99	=99	=99	=99
1GG	0G	2d\	0g
.	.	2B-\	.
2GG/	.	1r	.
2GG/	.	.	.
=100	=100	=100	=100
2GG/	1r	2.G/	0r
2GG/	.	.	.
.	.	4A/	.
2.GG/	2G/	2B-\	.
.	2G/	2G/	.
4AA/	.	.	.
=101	=101	=101	=101
2BB-/	2G/	2d\	1r
2GG/	2G/	2d\	.
1C	2.G/	2e-i\	2g/
.	.	2e-i\	2g/
.	4A/	.	.
=102	=102	=102	=102
0r	2B-\	1d	2g/
.	2G/	.	2g/
.	1c	1r	2.g/
.	.	.	4a/
=103	=103	=103	=103
1r	0r	2e-i\	2b-\
.	.	2e-i\	2g/
2C/	.	2e-i\	[1cc
2C/	.	2e-i\	.
=104	=104	=104	=104
2C/	2G/	2.c\	1cc]
2C/	2G/	.	.
.	.	4d\	.
2.C/	2G/	2e-i\	1r
.	2G/	2c\	.
4D\	.	.	.
=105	=105	=105	=105
2E-i\	2.G/	[0g	2g/
2C/	.	.	2g/
.	4A/	.	.
[1G	2B-\	.	2g/
.	2G/	.	2g/
=106	=106	=106	=106
0G]	0d	0g]	2.g/
.	.	.	4a/
.	.	.	2b-\
.	.	.	2g/
=107	=107	=107	=107
2r	0c	2r	1cc
2C/	.	2e\	.
2.C/	.	2.e\	2r
.	.	.	2g/
4D\	.	4f\	.
=108	=108	=108	=108
2E\	2r	2g\	2.g/
2C/	2G/	2e\	.
.	.	.	4a/
1G	2G/	1d	2b-\
.	2B-\	.	2g/
=109	=109	=109	=109
2.C/	2A/	2r	2.cc\
.	2G/	1e	.
4D\	.	.	4b-\
2E\	1c	.	4a/
.	.	.	4g/
[2F\	.	2c\	[2a/
=110	=110	=110	=110
4F\]	4A/	2f\	2a/]
4E\	4B-\	.	.
2C/	2c\	2e\	1g
1D	1A	1d	.
.	.	.	2f#i/
=111	=111	=111	=111
0GG	0G	0d	0g
=112	=112	=112	=112
*M3/1	*M3/1	*M3/1	*M3/1
*met(3)	*met(3)	*met(3)	*met(3)
!	!	!	!LO:N:vis=0
0.r	0.r	1G	0.r
.	.	1G	.
.	.	1G	.
=113	=113	=113	=113
*	*	*	*M3/1
*met(3)	*met(3)	*met(3)	*met(3)
0.r	0.r	0B-	1g
.	.	.	1g
.	.	1c	1g
=114	=114	=114	=114
0.r	0.r	1d	0b-
.	.	0e-i	.
.	.	.	1cc
=115	=115	=115	=115
0.r	0.r	1d	1dd
.	.	1.g	1.ee-i
.	.	2f\	2dd\
=116	=116	=116	=116
0.r	0.r	2e-i\	0dd
.	.	2d\	.
.	.	0e-i	.
.	.	.	1cc
=117	=117	=117	=117
1GG	0.r	0.d	0.dd
1GG	.	.	.
1GG	.	.	.
=118	=118	=118	=118
0BB-	1G	0.r	0.r
.	1G	.	.
1C	1G	.	.
=119	=119	=119	=119
1D	0B-	0.r	0.r
1.E-i	.	.	.
.	1c	.	.
2D\	.	.	.
=120	=120	=120	=120
1D	1d	0.r	0.r
1.G	1.e-i	.	.
2F\	2d\	.	.
=121	=121	=121	=121
2E-i\	0d	0.r	0.r
2D\	.	.	.
0E-i	.	.	.
.	1c	.	.
=122	=122	=122	=122
0D	0d	0f	1dd
.	.	.	1dd
1r	1r	1f	1dd
=123	=123	=123	=123
1G	1d	1.g	0dd
1G	1d	.	.
.	.	2f\	.
1G	[1d	1d	2cc\
.	.	.	2b-\
=124	=124	=124	=124
0F	1d]	1f	0a
.	0c	1f	.
2E\	.	1f	1r
2D\	.	.	.
=125	=125	=125	=125
0C	1e	0g	1cc
.	1e	.	1cc
1r	1e	[1g	1cc
=126	=126	=126	=126
1G	1d	1g]	0b-
1G	1.B-	0d	.
1G	.	.	2a/
.	2A/	.	2g/
=127	=127	=127	=127
2D\	1A	1d	2f/
2E\	.	.	2g/
2F\	2A/	1d	2a/
2G\	1G	.	2b-\
2E\	.	1c	1g
2E\	2G/	.	.
=128	=128	=128	=128
0D	[0.A	0.d	0.f
1r	.	.	.
=129	=129	=129	=129
1.D	0.A]	0.r	0.r
2E\	.	.	.
1F	.	.	.
=130	=130	=130	=130
1D	0.r	1.d	0.r
1G	.	.	.
.	.	2e\	.
1A	.	1f	.
=131	=131	=131	=131
1B-	1.G	1d	0.r
0G	.	1.g	.
.	2A/	.	.
.	1B-	.	.
.	.	2e\	.
=132	=132	=132	=132
0C	1G	0e	1.g
.	1c	.	.
.	.	.	2a/
1r	1r	1r	1b-
=133	=133	=133	=133
0C	0c	0e	1g
.	.	.	0cc
1C	[1A	1e	.
=134	=134	=134	=134
1.F	2A/]	1.f	1.a
.	2B-\	.	.
.	1c	.	.
2G\	.	2e\	2b-\
1A	1A	1c	1cc
=135	=135	=135	=135
1F	1d	1f	1a
1G	1.G	1d	1dd
[1E	.	[1g	[1g
.	2A/	.	.
=136	=136	=136	=136
2E\]	1B-	1g]	2g/]
2F\	.	.	2a/
1G	1G	1g	1b-
[1C	1c	1e	1g
=137	=137	=137	=137
1C]	1.e-	1c	1.cc
1.E-	.	0g	.
.	2d\	.	2b-\
.	2c\	.	2a/
2D\	2B-\	.	2g/
=138	=138	=138	=138
1BB-	0d	1f	1.b-
2BB-/	.	1.f	.
1F	.	.	1a
.	1c	.	.
2C/	.	2e\	2g/
=139	=139	=139	=139
1G	1B-	2e\	0g
.	.	2d\	.
0D	0A	0d	.
.	.	.	1f#i
=140	=140	=140	=140
0.GGl	0.Gl	0.dl	0.gl
==	==	==	==
*-	*-	*-	*-
!!!RDF**kern: l=long note in original notation
!!!RDF**kern: i=editorial accidental
!!!ENC:	Chris Gage 06-10-2013
!!!END:	2013/08/04/
!!!EED:	Jesse Rodin
!!!EEV:	2013/08/05/
!!!ONB:	Translated from MusicXML and edited on 2013/08/05/ by Craig Sapp
!!muse2ps: T^@{OPR}^u^@{ONM}{. }@{OTL}^C^@{COM}^i2I150v85,85,85,150Q16
